X:2
T:The Tune of Morvydd's Pipes
M:2/4
L:1/8
Q:100
C:Trad. arr. J.T.
S:Davidson's Musical Miracles 1859
R:Slow air
N:E minor arrangement
K:G
G/2A/2 | B>c BA | GE E>F | G/2A/2B AG | GF DE/2F/2 | G/2A/2B AG | GF DE/
2F/2 | GB FA | GE F/2G/2A/2F/2 | GE2 E/2F/2 | GB FA | GE F/2G/2A/2F/2 |
G E2 :||: F>G FE | FG AG/2A/2 | B>c BA | GE E2 | c>d cB | AG FE | DE cB
| B4 | B>c BA | GE E>F | G/2A/2B AG | GF DE/2F/2 | G/2A/2B AG | GF DE/2F/2|
GB FA | GE F/2G/2A/2F/2 | GE2 E/2F/2 | GB FA | GE F/2G/2A/2F/2 |
E3 :||
